packages/icon/src/svg/sort-desc.icon.svg

<svg role="img" aria-label="sort descending icon" xmlns="http://www.w3.org/2000/svg" viewBox="0 0 24 24">
  <path d="M13,8.82721448 L15.2364473,11.0574321 C15.4317888,11.2522295 15.747991,11.252009 15.9430606,11.0569394 L16.6464466,10.3535534 C16.8417088,10.1582912 16.8417088,9.84170876 16.6464466,9.64644661 L12.3535534,5.35355339 C12.1582912,5.15829124 11.8417088,5.15829124 11.6464466,5.35355339 L7.35355339,9.64644661 C7.15829124,9.84170876 7.15829124,10.1582912 7.35355339,10.3535534 L8.05693937,11.0569394 C8.25200897,11.252009 8.56821122,11.2522295 8.7635527,11.0574321 L11,8.82721448 L11,17.5 C11,17.7761424 11.2238576,18 11.5,18 L12.5,18 C12.7761424,18 13,17.7761424 13,17.5 L13,8.82721448 Z"/>
</svg>

<svg aria-label="sort desc icon" viewBox="0 0 24 24"><path d="M13 8.827l2.236 2.23a.5.5 0 00.707 0l.703-.703a.5.5 0 000-.708l-4.292-4.292a.5.5 0 00-.708 0L7.354 9.646a.5.5 0 000 .708l.703.703a.5.5 0 00.707 0L11 8.827V17.5a.5.5 0 00.5.5h1a.5.5 0 00.5-.5V8.827z"/></svg>
